SF_Symbols/cursorarrow.and.square.on.square.dashed.svg

<?xml version="1.0" encoding="UTF-8"?>
<svg xmlns="http://www.w3.org/2000/svg" xmlns:xlink="http://www.w3.org/1999/xlink" width="24" height="24" viewBox="0 0 24 24" version="1.1">
<g id="surface1">
<path style=" stroke:none;fill-rule:nonzero;fill:rgb(100%,100%,100%);fill-opacity:1;" d="M 0.980469 12.386719 L 0.980469 14.019531 C 0.980469 15.097656 1.25 15.90625 1.792969 16.449219 C 2.339844 16.984375 3.160156 17.25 4.25 17.25 L 6.886719 17.25 L 6.886719 15.574219 L 4.269531 15.574219 C 3.75 15.574219 3.351562 15.433594 3.074219 15.15625 C 2.796875 14.878906 2.65625 14.46875 2.65625 13.925781 L 2.65625 12.386719 Z M 2.65625 10.957031 L 2.65625 6.230469 L 0.980469 6.230469 L 0.980469 10.957031 Z M 2.65625 4.8125 L 2.65625 3.574219 C 2.65625 3.03125 2.796875 2.621094 3.074219 2.34375 C 3.351562 2.066406 3.75 1.925781 4.269531 1.925781 L 5.78125 1.925781 L 5.78125 0.25 L 4.25 0.25 C 3.160156 0.25 2.339844 0.519531 1.792969 1.0625 C 1.25 1.597656 0.980469 2.402344 0.980469 3.480469 L 0.980469 4.8125 Z M 11.925781 0.25 L 7.199219 0.25 L 7.199219 1.925781 L 11.925781 1.925781 Z M 13.34375 1.925781 L 14.675781 1.925781 C 15.191406 1.925781 15.585938 2.066406 15.863281 2.34375 C 16.148438 2.621094 16.292969 3.03125 16.292969 3.574219 L 16.292969 5.855469 L 17.96875 5.855469 L 17.96875 3.480469 C 17.96875 2.410156 17.695312 1.605469 17.144531 1.0625 C 16.605469 0.519531 15.792969 0.25 14.707031 0.25 L 13.34375 0.25 Z M 23.019531 16.363281 L 23.019531 8.300781 C 23.019531 7.234375 22.746094 6.425781 22.199219 5.886719 C 21.65625 5.34375 20.84375 5.074219 19.761719 5.074219 L 9.300781 5.074219 C 8.210938 5.074219 7.390625 5.34375 6.84375 5.886719 C 6.300781 6.421875 6.03125 7.226562 6.03125 8.300781 L 6.03125 18.84375 C 6.03125 19.921875 6.300781 20.726562 6.84375 21.261719 C 7.390625 21.800781 8.210938 22.074219 9.300781 22.074219 L 14.550781 22.074219 L 14.550781 20.394531 L 9.324219 20.394531 C 8.800781 20.394531 8.402344 20.257812 8.125 19.980469 C 7.847656 19.703125 7.707031 19.292969 7.707031 18.75 L 7.707031 8.394531 C 7.707031 7.855469 7.847656 7.445312 8.125 7.167969 C 8.402344 6.890625 8.800781 6.75 9.324219 6.75 L 19.730469 6.75 C 20.242188 6.75 20.640625 6.890625 20.917969 7.167969 C 21.203125 7.445312 21.34375 7.855469 21.34375 8.394531 L 21.34375 14.675781 Z M 15.488281 20.1875 C 15.488281 20.394531 15.578125 20.523438 15.75 20.574219 C 15.929688 20.628906 16.085938 20.59375 16.21875 20.46875 L 17.8125 18.875 L 19.59375 23.269531 C 19.636719 23.367188 19.703125 23.4375 19.792969 23.480469 C 19.890625 23.519531 19.984375 23.523438 20.074219 23.488281 L 21.113281 23.074219 C 21.203125 23.03125 21.265625 22.960938 21.292969 22.863281 C 21.328125 22.765625 21.320312 22.671875 21.269531 22.574219 L 19.40625 18.238281 L 21.65625 18.15625 C 21.851562 18.140625 21.984375 18.058594 22.050781 17.90625 C 22.128906 17.753906 22.097656 17.605469 21.957031 17.457031 L 16.261719 11.605469 C 16.128906 11.472656 15.984375 11.4375 15.824219 11.5 C 15.671875 11.554688 15.589844 11.679688 15.582031 11.875 Z M 15.488281 20.1875 "/>
</g>
</svg>

<svg xmlns="http://www.w3.org/2000/svg" width="24" height="24"><path style="stroke:none;fill-rule:nonzero;fill:#fff;fill-opacity:1" d="M.98 12.387v1.633c0 1.078.27 1.886.813 2.43.547.534 1.367.8 2.457.8h2.637v-1.676H4.27c-.52 0-.918-.14-1.196-.418-.277-.277-.418-.687-.418-1.23v-1.54Zm1.676-1.43V6.23H.98v4.727Zm0-6.145V3.575c0-.543.14-.953.418-1.23.278-.278.676-.418 1.196-.418H5.78V.25H4.25c-1.09 0-1.91.27-2.457.813C1.25 1.598.98 2.402.98 3.48v1.333ZM11.926.25H7.199v1.676h4.727Zm1.418 1.676h1.332c.515 0 .91.14 1.187.418.285.277.43.687.43 1.23v2.281h1.676V3.48c0-1.07-.274-1.875-.824-2.417C16.605.52 15.793.25 14.707.25h-1.363Zm9.676 14.437V8.301c0-1.067-.274-1.875-.82-2.414-.544-.543-1.356-.813-2.438-.813H9.3c-1.09 0-1.91.27-2.457.813-.543.535-.813 1.34-.813 2.414v10.543c0 1.078.27 1.883.813 2.418.547.539 1.367.812 2.457.812h5.25v-1.68H9.324c-.523 0-.922-.136-1.199-.414-.277-.277-.418-.687-.418-1.23V8.395c0-.54.14-.95.418-1.227.277-.277.676-.418 1.2-.418H19.73c.512 0 .91.14 1.188.418.285.277.426.687.426 1.227v6.28Zm-7.532 3.825c0 .207.09.335.262.386a.451.451 0 0 0 .469-.105l1.593-1.594 1.782 4.395a.383.383 0 0 0 .195.21c.09.04.191.043.285.008l1.04-.414a.314.314 0 0 0 .179-.21.342.342 0 0 0-.023-.29l-1.864-4.336 2.25-.082c.196-.015.328-.097.395-.25.078-.152.047-.3-.094-.449l-5.695-5.852c-.133-.132-.278-.168-.438-.105-.152.055-.234.18-.242.375Zm0 0"/></svg>
